X:1
T:Jesse James
M:2/4
L:1/16
K:G
 D2| GA BA GF EF| G2B,2 D2D2| G2 BA G2 FE| FE FG A2| D2| GA BA GFE-F|\
 G2B,2 D2D2| GG GF EF GA|B-G A2G2||
